X:1
T:When He Shed His Blood
T:When He Shed His Blood
T:Robert Harkness
T:Robert Harkness, 1908
T:Public Domain Courtesy of the Cyber Hymnal™
C:Robert Harkness
Z:Public Domain
Z:Courtesy of the Cyber Hymnal™
%%score ( 1 2 ) ( 3 4 )
L:1/8
Q:1/4=107
M:4/4
K:D
V:1 treble 
V:2 treble 
V:3 bass 
V:4 bass 
V:1
 D[DE] | [DF]2 [DB]2 [DA]2 [DF]2 | [DF]2 [CE]4 [CE][DF] | [EG]2 [Gc]2 [GB]2 [GA]2 | [FA]6 D[DE] | %5
w: 1.~On the|cru- el cross they|nailed Him, There to|die in ag- o-|ny; But He|
w: 2.~In His|love He came to|suf- fer, All the|fall- en to re-|deem; Mer- cy’s|
w: 3.~In our-|selves we mer- it|no- thing, All our|works must be in|vain; On- ly|
w: 4.~What a|won- der- ful sal-|va- tion! What a|depth of love is|shown, In the|
 [DF]2 [DB]2 [DA]2 [DF]2 | [CF]2 [CE]4 [DE][DE] | [CE]2 [EA]2 [DA]2 [D^G]2 | [CA]6 || %9
w: gave His life a|ran- som, Just to|set sin’s cap- tives|free.|
w: of- fer still is|o- pen, Still there’s|life in Cal- vary’s|stream.|
w: through the blood of|Je- sus, Can we|life e- ter- nal|gain.|
w: sac- ri- fice of|Je- sus, In the|blood that does a-|tone.|
"^Refrain" [DF][FA] | [Fd]4 [GB]4 | [FA]6 [DF][FA] | [GB]4 [Gd]4 | [FA]6 [DF][FA] | %14
w: |||||
w: |||||
w: |||||
w: |||||
 [EG]2 [CE]2 [CE]2 [EG][GB] | [FA]2 [DF]2 [DF]2 [FA][FA] | [Fd]4 [Ge]4 | [Fd]6 |] %18
w: ||||
w: ||||
w: ||||
w: ||||
V:2
 D x | x8 | x8 | x8 | x6 D x | x8 | x8 | x8 | x6 || x2 | x8 | x8 | x8 | x8 | x8 | x8 | x8 | x6 |] %18
V:3
 [D,F,][D,G,] | [D,A,]2 [D,G,]2 [D,F,]2 [D,A,]2 | [A,,A,]2 [A,,A,]4 [A,,A,][A,,A,] | %3
w: ~ ~|~ ~ ~ ~|~ ~ ~ ~|
 A,2 [A,E]2 [A,D]2 [A,C]2 | [D,D]6 [D,F,][D,G,] | [D,A,]2 [D,G,]2 [D,F,]2 [D,A,]2 | %6
w: ~ ~ ~ ~|~ ~ ~|~ ~ ~ ~|
 [E,A,]2 [E,A,]4 [E,^G,][E,G,] | [E,A,]2 [E,C]2 [E,B,]2 [E,B,]2 | [A,,A,]6 || [D,A,][D,D] | %10
w: ~ ~ ~ ~|~ ~ ~ ~|~|When He|
 [D,A,]4 [D,D]4 | [D,D]6 [D,A,][D,D] | [G,,D]4 [B,,D]4 | [D,D]6 [D,A,][D,A,] | %14
w: shed His|blood, When He|shed His|blood, Then He|
 [A,,A,]2 [A,,A,]2 [A,,A,]2 A,A, | [D,D]2 [D,A,]2 [D,A,]2 [D,A,][D,D] | A,4 [A,,A,]4 | [D,A,]6 |] %18
w: ran- somed me For e-|ter- ni- ty, When He|shed His|blood.|
V:4
 x2 | x8 | x8 | A,2 x6 | x8 | x8 | x8 | x8 | x6 || x2 | x8 | x8 | x8 | x8 | x6 A,A, | x8 | A,4 x4 | %17
 x6 |] %18

